X: 38898
T: Sunset, The
R: reel
M: 4/4
K: Dmajor
|:"F#m"B/c/d ed cF~F2|"Bm"{B}c2dc BGBd|"D"deed "C"=cdeg|"G"d2Ad "Bm"dfed|
"F#m"B/c/d ed cF~F2|"Bm"{B}c2dc BGBd|"D"deed "C"=cdeg|1 "D"fd"C"ec "Bm"dfed:|2 "D"fd"C"ec "Bm"dfec||
"F#m"d2 ag fdfg|gagf "C"e=cef|g3a fggf|gfec "Bm"dfed|
"F#m"B/c/d ed cF~F2|"Bm"{B}c2dc BGBd|"D"deed "C"=cdeg|"D"f/e/d "C"ec "Bm"dfec|
"F"d2 ag =f=cfg|gag=f e=cef|"Dsus4"g3a fggf|gfec dfed|
"F#m"B/c/d ed cF~F2|"Bm"{B}c2dc BGBd|"D"deed "C"=cdeg|1 "D"fd"C"ec "Bm"dfec:|2 "D"fd"C"ec "Bm"dfed||

